X: 1
T: Boney's Retreat
M: 4/4
L: 1/8
R: hornpipe
K: Dmaj
|:D3 E F3 G|A2 d2 AGF2|GFE2 FED2|e2 d2 cA3|
D3 E F3 G|A2 d2 AGF2|e2 f2 gfe2|d4 d4:|
|:d2 e2 f2 g2|a2 f2 dB A2|d2 e2 f3 e|d2 c2 B2 A2|
d2 e2 f2 g2|a2 f2 d2 B2|A2 f2 gf e2|d4 d4:|
